!!!!SEGMENT: pl-wtm--a-43-186-99--001-001_fitelberg-grzegorz--szesc-piesni-op-22-no-1-plynie-do-ojczyzny.krn
!!!cenid: 19xx:96
!!!COM: Fitelberg, Grzegorz
!!!COM-rismID: pe41023683
!!!CDT: 1879-1953
!!!CNT: Polish
!!!GTL: Sześć pieśni Op. 22
!!!OTL: No. 1. Płynie do ojczyzny
!!!OMV: 001
!!!PDT:
!!!AGN: Secular; Song
!!!YEC: Copyright 2022 Narodowy Instytut Fryderyka Chopina (https://polishscores.org)
!!!YEM: License CC-BY-4.0 (https://creativecommons.org/licenses/by/4.0)
!!!SMS-siglum: PL-Wtm
!!!SMS-shelfmark: A-43.186/99
!!!SMS-variant:
!!!SMS-altvar:
!!!SMS-shelfwork: 001-001 G
!!!NIFC-rismSourceID: 1001135590
!!!NIFC-rismChildID: 1001135593
!!!NIFC-islandoraID: pl-wtm:4771
!!!URL-pdf-islandora: https://repozytorium.nifc.pl/islandora/object/pl-wtm%3A4771/datastream/PDF/view
!!!URL-scan: https://polish.musicsources.pl/pl/lokalizacje/galeria/druki-muzyczne/15759/3 @EN{Scan on Polish Music Sources Website} @PL{Skany w portalu Dziedzictwo Muzyki Polskiej w otwartym dostępie}
!!!IIIF:
!!!ONB-nifc:
!!!AIN: 1 piano 1 vox
!!!key: A
**kern	**kern	**dynam	**kern	**text	**text	**dynam
*part2	*part2	*part2	*part1	*part1	*part1	*part1
*staff3	*staff2	*	*staff1	*staff1	*staff1	*
*I"Klavier.	*I"Klavier.	*	*I"Singstimme.	*	*	*
*I'[pf]	*I'[pf]	*	*I'[V]	*	*	*
*ICklav	*ICklav	*	*ICvox	*	*	*
*Ipiano	*Ipiano	*	*Ivox	*	*	*
*clefF4	*clefG2	*	*clefG2	*	*	*
*k[]	*k[]	*	*k[]	*	*	*
*A:	*A:	*	*A:	*	*	*
*M6/8	*M6/8	*	*M6/8	*	*	*
*	*^	*	*	*	*	*
!	!LO:TX:b:i:t=sempre molto legato	!	!	!LO:TX:a:B:t=Largo.	!	!	!
8r	8r	[8B#X\	p	8r	.	.	.
=1	=1	=1	=1	=1	=1	=1	=1
!	!	!	!	!	!	!	!LO:DY:a
!	!LO:TX:a:i:t=espressivo	!	!	!	!	!	!LO:DY:a
(<8.AAA~\L	(4D#X/ 4d#X	8B#\]	.	(4d#X/	Schla-	Pły-	p <
.	.	[4c#X\	.	.	.	.	.
16EE\K	.	.	.	.	.	.	.
8AA\J)	8E/ 8e	.	<	8e/	-fend	-nie	.
(<8.AAA#X~\L	4G#X/ 4g#X	8c#\L]	.	4g#X/	trägt	do	.
.	.	8d#\	.	.	.	.	.
16EE\K	.	.	.	.	.	.	.
8AA#X\J)	8c#/) 8g# 8cc#X	8e\J	[[	8cc#X\)	man	oj-	[
=2	=2	=2	=2	=2	=2	=2	=2
!	!	!	!	!	!	!	!LO:DY:a
(16CCn~\KL 16GGn	(<2.cn/ 2.e-X 2.ccn	4g\	pp	[4.ccn\	mich	-czy-	>
8G~\	.	.	.	.	.	.	.
8C\	.	.	.	.	.	.	.
.	.	8A-X\ 8a-X	<	.	.	.	.
8GG\	.	.	.	.	.	.	.
.	.	4An\ 4an	.	4cc\]	.	.	.
8C\	.	.	.	.	.	.	.
8GG\	.	.	.	.	.	.	.
.	.	[8B-X\) [8b-X	.	8e-X/	in	-zny,	]
[<16CC\Jk)	.	.	[[	.	.	.	.
!!LO:LB:g=original	!	!	!	!	!	!	!
=3	=3	=3	=3	=3	=3	=3	=3
*	*	*	*	*^	*	*	*
!	!	!	!	!	!	!	!	!LO:DY:a
16CC\LL]	(4c#X/ 4cc#X	8B-\] 8b-]	p <	(4.g/	4.ryy	mein	śniąc,	<
(16GGG~\	.	.	.	.	.	.	.	.
16Bn~\	.	[4bn\	.	.	.	.	.	.
[16D\	.	.	.	.	.	.	.	.
16D\]	8d/ 8dd	.	.	.	.	.	.	.
[16GG\JJ	.	.	.	.	.	.	.	.
*	*	*	*	*	*cue	*	*	*
16GG\LL])	4f#X/ 4ff#X	8b\L]	.	4b/	8b\	Hei-	zi	.
(16GGG#X~\ 16GG#X	.	.	.	.	.	.	.	.
16c#X~\	.	8cc#X\	.	.	8b\	mny	.	.
16F#X\	.	.	.	.	.	.	.	.
*	*	*	*	*	*Xcue	*	*	*
16d~\	8b/) 8ff# 8bb	8dd\J	.	8dd\)	8ryy	-mat-	mój	[
16D\JJ)	.	.	[[	.	.	.	.	.
*	*	*	*	*v	*v	*	*	*
=4	=4	=4	=4	=4	=4	=4	=4
*	*	*	*^	*	*	*	*
!	!	!LO:TX:b:Bi:t=molto cresc._ :problem:dynamics with line extensions	!	!	!	!	!	!LO:DY:a
!	!	!	!LO:DY:b	!LO:HP:a:t=molto cresc._	!	!	!	!
(16BBB-X~\LL 16FFn 16BB-X	(<2.b-X/ 2.dd-X 2.bb-X	4ffn\	pp <	<	[4.ff\	-land.	trup	pp
16f~\	.	.	.	.	.	.	.	.
16d-X\	.	.	.	.	.	.	.	.
16g-X~\	.	.	.	.	.	.	.	.
16B-X\	.	8gg-X\	.	.	.	.	.	.
16gn~\JJ	.	.	.	.	.	.	.	.
16F\LL	.	8ggn\L	.	.	8ff\]	.	.	.
16g-X~\	.	.	.	.	.	.	.	.
16BB-X\J	.	8aa-X\)	.	.	8r	.	.	.
8f~\	.	.	.	.	.	.	.	.
.	.	[8ff^\J	.	.	8r	.	.	.
[16f\Jk)	.	.	[[	.	.	.	.	.
=5	=5	=5	=5	=5	=5	=5	=5	=5
16f\LL]	(4an/ 4aan	8ff\]	.	.	4r	.	.	.
(16DD~\	.	.	.	.	.	.	.	.
16f#X~\J	.	[4ff#X\	.	.	.	.	.	.
8A\	.	.	.	.	.	.	.	.
.	8b/ 8bb	.	.	.	8r	.	.	.
[16D\Jk	.	.	.	.	.	.	.	.
!	!	!	!	!	!	!	!	!LO:DY:a
16D\LL])	4cc#X/ 4ccc#X	8ff#\L]	.	.	4ff#X\	Fer-	Pły-	f
(16DD#X~\ 16D#X	.	.	.	.	.	.	.	.
16g#X~\	.	8gg#X\	.	.	.	.	.	.
16c#X\	.	.	.	.	.	.	.	.
16a~\)	8ff#/) 8ccc# 8fff#X	8aa\J	.	.	8cc#X\	-ne	-nie	.
(16EE\JJ 16E	.	.	.	.	.	.	.	.
*	*	*	*v	*v	*	*	*	*
*	*v	*v	*	*	*	*	*
!!LO:LB:g=original	!	!	!	!	!	!
=6	=6	=6	=6	=6	=6	=6
8FF\L 8F	(16ffn~\KL 16aa 16ccc#X 16fffn	f <	([4.ffn\	komm	z mro-	.
.	8cc#X~\ 8ff 8aa 8ccc#	.	.	.	.	.
8GG\ 8G	.	.	.	.	.	.
.	8a~\ 8cc# 8ff 8aa	.	.	.	.	.
8AA\J 8A	.	.	.	.	.	.
.	16f~\Jk) 16a 16cc# 16ff	.	.	.	.	.
8.BB\L) 8.B	((8e^>/L [8f [8a 8ee	[	4ff\]	.	.	.
.	8d/J)) 8f] 8a] 8dd	>	.	.	.	.
8.C#X\J [8.c#X	.	.	.	.	.	.
!	!LO:TUP:a	!	!	!	!	!
.	(48a\LLL	.	8cc#X\	.	-cznej	.
.	48b\	.	.	.	.	.
.	48cc#X\	]	.	.	.	.
.	48dd\	<	.	.	.	.
.	48ee\	.	.	.	.	.
.	48ee#X\JJJ	[	.	.	.	.
=7	=7	=7	=7	=7	=7	=7
*^	*	*	*	*	*	*
4.c#X/_	(8D#X\L	(4.f#X\) [>4.a [4.cc#X 4.ff#X	f >	4.b\	.	da-	.
.	8E\	.	.	.	.	.	.
.	8E#X\J	.	.	.	.	.	.
8c#/]	8F#X\L	16fn\KL 16a] 16cc#] 16ffn	.	4.a/	ich	.	.
.	.	8cc#\ 8aa 8ccc#X	.	.	.	.	.
8r	8G#X\	.	.	.	.	.	.
.	.	8a\ 8ff 8aa	.	.	.	.	.
8r	8A\J	.	.	.	.	.	.
.	.	16f\Jk) 16cc# 16ff	]	.	.	.	.
*v	*v	*	*	*	*	*	*
=8	=8	=8	=8	=8	=8	=8
*	*^	*	*	*	*	*
4B\	(8ee^/	[4.f\ [4.a	.	4.f/)	her,	-li,	.
!	!	!LO:TX:b:Bi:t=dim._ :problem:dynamics with line extensions	!LO:HP:t=dim._	!	!	!	!
.	[4dd/	.	>	.	.	.	.
4c#X\	.	.	.	.	.	.	.
.	8dd/])	8f\] 8a]	.	4r	.	.	.
[<4d\)	8r	4ryy	.	.	.	.	.
.	8r	.	.	8r	.	.	.
*	*v	*v	*	*	*	*	*
*clefG2	*	*	*	*	*	*
!!LO:PB:g=original	!	!	!	!	!	!
=9	=9	=9	=9	=9	=9	=9
*^	*	*	*	*	*	*
!	!	!LO:TX:b:i:t=dolce	!	!	!	!	!
8r	2.d\_	(4.dd\ 4.bb 4.ddd	pp	2.r	.	.	.
(8d/L	.	.	.	.	.	.	.
[8d#X/J	.	.	.	.	.	.	.
8d#/L]	.	4cc#X\ 4aa 4ccc#X	.	.	.	.	.
8e/	.	.	.	.	.	.	.
[8e#X/J	.	8a\ 8ff#X 8aa	<	.	.	.	.
=10	=10	=10	=10	=10	=10	=10	=10
!	!	!	!	!	!	!	!LO:DY:a
8e#/L]	2.d\_	8ccn\ 8aa-X 8cccn	[ >	([2.dd\	ü-	po-	pp
8f#X/	.	4b\) 4gg 4bb	]	.	.	.	.
8g/J	.	.	.	.	.	.	.
8g#X/L	.	(8b#X\L [8ff#X [8aa#X	<	.	.	.	.
8a/	.	8cc#X\ 8ff#] 8aa#]	.	.	.	.	.
8a#X/J	.	8dd\J 8ff#	[	.	.	.	.
=11	=11	=11	=11	=11	=11	=11	=11
4.b/)	4d\]	8ff\ 8aa	>	4.dd\]	.	.	.
.	.	4ee\) 4gg#X	]]	.	.	.	.
.	[8d\	.	.	.	.	.	.
(8g#X/L	4.d\_	(8b#X\L [8ff#X [8aa#X	<	4.cc\	-ber	-nad	.
8a/	.	8cc#X\ 8ff#] 8aa#]	.	.	.	.	.
8a#X/J	.	8dd\J 8ff#	[	.	.	.	.
=12	=12	=12	=12	=12	=12	=12	=12
!	!	!	!	!	!	!	!LO:DY:a
4.b/	4d\]	8ffn\ 8aan	>	4.b\	Gip-	gór	<
.	.	4ee\) 4gg#X	]]	.	.	.	.
.	[8d\	.	.	.	.	.	.
4.cc#X/	4d\]	(8ggn\ 8bb	>	[4.ee\	.	szczy-	[[
.	.	4ff#X\) 4aa#X	]	.	.	.	.
.	[8d\	.	.	.	.	.	.
!!LO:LB:g=original	!	!	!	!	!	!	!
=13	=13	=13	=13	=13	=13	=13	=13
2.ccn/)	2.d\]	(4gg\ 4bb	>	4.ee\]	.	.	.
.	.	[8ff#X\ [8aa#X	.	.	.	.	.
.	.	4.ff#\]) 4.aa#]	]	4.dd\)	-fel,	-ty	.
*v	*v	*	*	*	*	*	*
*clefF4	*	*	*	*	*	*
=14	=14	=14	=14	=14	=14	=14
*	*^	*	*	*	*	*
!	!LO:TX:b:i:t=dolcissimo	!	!	!	!	!	!
8B-X\L 8f 8a-X	(4.ccc/	4cc\ 4dd	pp <	4r	.	.	.
(8BB-X\	.	.	.	.	.	.	.
[<8B-\J	.	[8dd-X\	[[	8r	.	.	.
8B-\L_ [8e-X	8ccc-X/	(4.dd-\]	>	([4.b-X\	ü-	po-	.
8B-\_< 8e-_< [>8g-X	4bb-X/)	.	.	.	.	.	.
8B-\J] 8e-] 8g-] 8an	.	.	]]	.	.	.	.
=15	=15	=15	=15	=15	=15	=15	=15
8a-X\L)	(4.cc/)	8r	<	4.b-\]	.	.	.
(8BBB-X\	.	8r	.	.	.	.	.
[<8BB-X\J	.	[8d-X\	.	.	.	.	.
8BB-\L_ [<8E-X	8cc-X/	4.d-\]	[ >	4.g-X/)	-ber	-nad	.
8BB-\_< 8E-_< [>8G-X	4b-X/)	.	.	.	.	.	.
8BB-\J]) 8E-] 8G-] 8An	.	.	.	.	.	.	.
*	*v	*v	*	*	*	*	*
=16	=16	=16	=16	=16	=16	=16
*	*^	*	*	*	*	*
!	!LO:TX:t=P:problem: bracketed notes	!	!	!	!	!	!
4r	2.A-X</	2.c	]	(4.f/	Schlün-	ja-	.
(<4BBB-X\	.	.	.	.	.	.	.
.	.	.	.	4.c/)	-de,	-ry,	.
4BB-X\)	.	.	.	.	.	.	.
*	*v	*v	*	*	*	*	*
!!LO:LB:g=original	!	!	!	!	!	!
=17	=17	=17	=17	=17	=17	=17
*M9/8	*M9/8	*	*M9/8	*	*	*
*^	*	*	*	*	*	*
8r	2ryy	(>2.F</ N[>2.A-X< [2.c (>2.d	.	(4.b-X\	ü-	po-	.
8r	.	.	.	.	.	.	.
[8BBB-X\ [<8BB-X	.	.	.	.	.	.	.
4.BBB-\_ 4.BB-_<	.	.	.	4.d/	ber	.	.
.	8ryy	.	.	.	.	.	.
.	8ryy	.	.	.	.	.	.
4BBB-\] 4BB-]	(>4A-/N]	4.E-X</) 4.c] 4.e-X)	.	4.e-X/)	ein	-nad	.
(<8AAAn\ (>8AAn	8An/)	.	.	.	.	.	.
*v	*v	*	*	*	*	*	*
=18	=18	=18	=18	=18	=18	=18
*M6/8	*M6/8	*	*M6/8	*	*	*
*^	*^	*	*	*	*	*
!	!	!LO:TX:b:i:t=molto espressivo	!	!	!	!	!	!
8.E-X\L) 8.An) 8.e-X	4ryy	(>8c/ 8cc	4ryy	.	(4e-X/	dun-	mórz	.
.	.	4c#X/ 4cc#X	.	.	.	.	.	.
16AA\K	.	.	.	.	.	.	.	.
8En\J	8E/	.	8en\	<	8en/	.	błę-	.
4G#X/	(16G#\KL	8c#X/L 8cc#X	4g#X\	.	4g#X/	.	-ki-	.
.	8AAA#X\	.	.	.	.	.	.	.
.	.	8d#X/ 8dd#X	.	.	.	.	.	.
.	16AA#X\L	.	.	.	.	.	.	.
8c#X/	16c#\	8e/J) 8ee	8cc#X\	.	8cc#X\)	-kles	-ty	.
.	16G#X\JJ)	.	.	[[	.	.	.	.
*v	*v	*	*	*	*	*	*	*
*	*v	*v	*	*	*	*	*
=19	=19	=19	=19	=19	=19	=19
(16CCn~\KL 16GGn	(4e-X/ [>4ccn [4ee-X	pp	[4.ccn\	Meer	pły-	.
[8cn\	.	.	.	.	.	.
8G\ 8c_	.	.	.	.	.	.
.	8g\ 8cc_> 8ee-_ 8gg	.	.	.	.	.
8C\ 8c]	.	.	.	.	.	.
.	8a-X\L 8cc_> 8ee-_ 8aa-X	.	4cc\]	.	.	.
8GG\	.	.	.	.	.	.
.	8an\ 8cc_> 8ee-_ 8aan	.	.	.	.	.
[16CC\K	.	.	.	.	.	.
8CC\J])	((8b-X\J) 8cc] 8ee-] 8bb-X	.	(8e-X/	in	.	.
!!LO:LB:g=original	!	!	!	!	!	!
=20	=20	=20	=20	=20	=20	=20
*^	*^	*	*	*	*	*
4c#X/	(16c#\KL	(8b/)) 8bb	4cc#X\	<	4.g/	mein	-nie	.
.	8GGG\	.	.	.	.	.	.	.
.	.	[4bn/ [4bbn	.	.	.	.	.	.
.	16GG\L	.	.	.	.	.	.	.
8d/	16d\	.	8dd\	.	.	.	.	.
.	16G\JJ)	.	.	.	.	.	.	.
4f#X/	(16f#\LL	8b/L] 8bb]	4ff#X\	.	4b\	.	do	.
.	16GGG#X\	.	.	.	.	.	.	.
.	16GG#X\	8cc#X/ 8ccc#X	.	.	.	.	.	.
.	16D\	.	.	.	.	.	.	.
8b/	16b\	8dd/J) 8ddd	8bb\	[	8dd\)	.	oj-	.
.	16f#\JJ)	.	.	.	.	.	.	.
*v	*v	*	*	*	*	*	*	*
*	*v	*v	*	*	*	*	*
=21	=21	=21	=21	=21	=21	=21
(16BBB-X\KL 16FFn 16BB-X	(8dd-X\L [8bb-X [8ddd-X	pp <	([4.ff\	Hei-	-czy-	.
8b-X\	.	.	.	.	.	.
.	8ff\ 8bb-_> 8ddd-_ 8fff	.	.	.	.	.
16f\L	.	.	.	.	.	.
16B-X\	8gg-X\ 8bb-_> 8ddd-_ 8ggg-X	.	.	.	.	.
16g-X~\JJ	.	.	.	.	.	.
16F\LL	8ggn\ 8bb-_> 8ddd-_ 8gggn	.	4ff\]	.	.	.
16gn~\	.	.	.	.	.	.
16BB-X\	8aa-X\J) 8bb-] 8ddd-] 8aaa-X	[[	.	.	.	.
16a-X~\JJ)	.	.	.	.	.	.
(<8CC#X~/ 8EE 8AA 8C#X	(8aan~\ 8ccc#X 8eee 8aaan	ppp	8ee\)	-mat-	.	.
=22	=22	=22	=22	=22	=22	=22
4A\) 4c#X 4e	4a~\) 4cc#X 4ee 4aa	.	[2.ee\	-land.	-zny.	.
(<8BBB~/ 8EE 8AA 8BB	(8aa~\ 8bb 8eee 8bbb	.	.	.	.	.
4B\) 4e 4a	4b~\) 4ee 4aa 4bb	.	.	.	.	.
(<8AAA~/ 8EE 8AA	(8ccc#X~\ 8eee 8aaa 8cccc#X	.	.	.	.	.
=23	=23	=23	=23	=23	=23	=23
2.c#X;\) 2.e 2.a	2.cc#X~;\) 2.ee 2.aa 2.ccc#X	.	2.ee;\]	.	.	.
==	==	==	==	==	==	==
*-	*-	*-	*-	*-	*-	*-
!!!system-decoration: s1{(s2,s3)}
!!!RDF**kern: > = above
!!!RDF**kern: < = below
!!!RDF**kern: N = linked
!!!ENC: Anastazja Marusiak
!!!END: 2023-10-04
!!!EED: Jan Barakat
!!!EEV: 2023-10-24
